!!!COM: Fanny (Mendelssohn) Hensel
!!!CNT: Deutsch
!!!TXO: Deutsch
!!!OTL: "Traurige Wege"
!!!LYR: Lenau, Nikolaus
!!!OPR: 
!!!OPS: Op. 
!!!ONM: No. 
!!!ENC: Emily Thomas
!!!YOR: Hensel: Ausgewa2hlte Lieder fu2r Singstimme und Klavier
!!!YOR: Breitkopf & Hartel, 1994 vol. 2
!!!ODT: 1841/
!!NB: Vocal melody and text encoded.
**kern	**silbe
=0-	=0
*clefG2	*
*k[]	*
*M4/4	*
*MM[Andante con moto]	*
2r	.
{4.a	{Bin
8e	mit
=1	=1
4.a	dir
8e	im
4.f	Wald
8e	ge-
=2	=2
8d	-gan-
8c	|
4B}	-gen;}
{4c	{ach!
4d	wie
=3	=3
4.e	war
8e	der
4a	Wald
8g	so
8f	|
=4	=4
4e	froh!
8d}	|}
8r	.
{4.cc	{Al-
8g	-les
=5	=5
4.cc	gru2n,
8g	die
4cc	Vo20
8b	-gel
8cc	|
=6	=6
8b	san-
8a	|
4g	-gen,
8f#	und
8a	|
8g	das
8f#	|
=7	=7
4.b	scheu-
8e	-e
8f#	Wild
8a	|
8g	ent-
8f#	|
=8	=8
4b}	-floh,}
4r	.
{4.cc	{und
8a	das
=9	=9
4.f#	scheu-
8f#	-e
4.a	Wild
8d#	ent
=10	=10
4e}	-floh.}
4r	.
4r	.
{8e	{Wo
8e	die
=11	=11
4cc#	lie-
4cc#	-be
4b	frei
4a#	und
=12	=12
4a#	of-
4b	-gen
4.b	rings
8cc#	von
=13	=13
8dd	al-
8b	|
8g#	-len
8e	|
8g#	Zwei-
8f#	|
8e	-gen
8d	|
=14	=14
4c#}	schallt,}
4r	.
4r	.
{8c#	{ging
8c#	die
=15	=15
4a	Lie-
4a	-be
4g#	oh-
4a	-ne
=16	=16
8cc	Hof-
8b	|
4a	-fen
4cc	trau-
8b	-rig
8a	|
=17	=17
4a	durch
8g	den
8f	|
4f	gru2-
8e	-nen
8b	|
=18	=18
2c}	Wald,}
2r	.
=19	=19
2r	.
4r	.
{8.a	{ging
16b	die
=20	=20
4dd	Lie-
4cc	-be
4a	oh-
4f	-ne
=21	=21
4d#	Hof-
4e	-fen
4c	trau-
4dn	-rig
=22	=22
4.e	durch
8e	den
4e	gru2-
4e	-nen
=23	=23
2A}	Wald.}
2r	.
==	==
*-	*-
